!!!SOCIAL_FUNCTION:	bird dance songs
!!!PDT:	1932
!!!OTL: No_107_Song_Concerning_the_Diver.krn
!!!REG: Southwest
!!!LANG: Non-Tone
!!!LING_GROUP: Yuman-Cochimi
**kern	**kern
*staff2	*staff1
=1-	=1-
*clefF4	*clefF4
*k[b-e-]	*k[b-e-]
*M3/8	*M3/8
8.r	8r
.	8.r
16r	.
8r	.
.	16F\
=2	=2
4.r	8F\L
.	16D\L
.	16F\J
.	8D\J
=3||	=3||
*M2/4	*M2/4
8.GG/L	8.F\L
16GG/Jk	16F\Jk
8.GG/L	16F\LK
.	8B-\
16GG/Jk	16F\Jk
=4	=4
8.GG/L	8F\
.	8r
16GG/Jk	.
8.GG/L	16F\LK
.	8.D\J
16GG/Jk	.
=5	=5
2r	8.F\L
.	16F\Jk
.	16F\LK
.	8B-\
.	16F\Jk
=6	=6
2r	8F;\L
.	16D\L
.	16F\JJ
.	4F\
=7	=7
2r	4r
.	8.D\L
.	16D\Jk
=8	=8
2r	4F\
.	16F\LK
.	8G\
.	16D\Jk
=9	=9
2r	8.F\L
.	16F\Jk
.	16F\LK
.	8B-\
.	16F\Jk
=10	=10
2r	8F\
.	8r
.	16F\LK
.	8.D\J
=11	=11
2r	8.F\L
.	16F\Jk
.	16F\LK
.	8B-\
.	16F\Jk
=12	=12
2r	8F;\L
.	16D\L
.	16F\JJ
.	4F\
=13||	=13||
2r	4r
.	8r
.	16r
.	16F\
=14	=14
2r	8.F\L
.	16F\Jk
.	8F\
.	8r
=15	=15
2r	16c\LK
.	8.c\J
.	8B-\L
.	8G\J
=16	=16
2r	8.c\L
.	16c\Jk
.	8.B-\L
.	16G\Jk
=17	=17
2r	16B-\LK
.	8.B-\J
.	16G\LL
.	16F\JJ
.	8r
=18||	=18||
*M3/4	*M3/4
2.r	8.B-\L
.	16B-\Jk
.	16G\LK
.	8B-\
.	16F\Jk
.	16G\LK
.	8D\J
.	16r
=19||	=19||
*M2/4	*M2/4
2r	8.F\L
.	16F\Jk
.	16F\LK
.	8B-\
.	16F\Jk
=20	=20
2r	8F\
.	8r
.	16F\LK
.	8.D\J
=21	=21
2r	8.F\L
.	16F\Jk
.	16F\LK
.	8B-\
.	16F\Jk
=22	=22
2r	8F;\L
.	16D\L
.	16F\JJ
.	4F\
=23	=23
2r	4r
.	8.D\L
.	16D\Jk
=24	=24
2r	4F\
.	16F\LK
.	8G\
.	16D\Jk
=25	=25
2r	8.F\L
.	16F\Jk
.	16F\LK
.	8B-\
.	16F\Jk
=26	=26
2r	8F\
.	8r
.	16F\LK
.	8.D\J
=27	=27
2r	8.F\L
.	16F\Jk
.	16F\LK
.	8B-\
.	16F\Jk
=28	=28
2r	8F;\L
.	16D\L
.	16F\JJ
.	4F\
=29	=29
2r	4r
.	8r
.	16r
.	16F\
=30	=30
2r	8.F\L
.	16F\Jk
.	8F\
.	8r
=31	=31
2r	16c\LK
.	8.c\J
.	8B-\L
.	8G\J
=32	=32
2r	8.c\L
.	16c\Jk
.	8.B-\L
.	16G\Jk
=33	=33
2r	16B-\LK
.	8.B-\J
.	16G\LL
.	16G\JJ
.	8r
=34||	=34||
*M3/4	*M3/4
2.r	8.B-\L
.	16B-\Jk
.	16G\LK
.	8B-\
.	16F\Jk
.	16G\LK
.	8D\J
.	16r
=35||	=35||
*M2/4	*M2/4
2r	8.F\L
.	16F\Jk
.	16F\LK
.	8B-\
.	16F\Jk
=36	=36
2r	8F\
.	8r
.	16F\LK
.	8.D\J
=37	=37
2r	8.F\L
.	16F\Jk
.	16F\LK
.	8B-\
.	16F\Jk
=38	=38
2r	8F;\L
.	16D\L
.	16F\JJ
.	4F\
==	==
*-	*-
